ci/cib-pluralsight.svg

<svg xmlns="http://www.w3.org/2000/svg" viewBox="0 0 32 32" height="1em" width="1em">
  <path d="M20.959 2.339c-7.521-2.74-15.876 1.161-18.599 8.661-2.761 7.599 1.14 15.943 8.661 18.683 7.541 2.739 15.943-1.161 18.676-8.683 2.745-7.563-1.156-15.917-8.697-18.661zM16 32c-8.803 0-16-7.197-16-16s7.197-16 16-16c8.803 0 16 7.197 16 16s-7.197 16-16 16zM11.901 7.74v16.52l14.339-8.26zM13.303 10.099l10.197 5.901-10.197 5.901v-11.803zM8.599 9.541v12.917l11.204-6.459zM10 11.937l7.083 4.063-7.083 4.083v-8.165z"/>
</svg>

<svg xmlns="http://www.w3.org/2000/svg" viewBox="0 0 32 32" height="1em" width="1em">
  <path d="M20.959 2.339C13.438-.401 5.083 3.5 2.36 11c-2.761 7.599 1.14 15.943 8.661 18.683 7.541 2.739 15.943-1.161 18.676-8.683C32.442 13.437 28.541 5.083 21 2.339zM16 32C7.197 32 0 24.803 0 16S7.197 0 16 0s16 7.197 16 16-7.197 16-16 16zM11.901 7.74v16.52L26.24 16zm1.402 2.359L23.5 16l-10.197 5.901V10.098zm-4.704-.558v12.917l11.204-6.459zM10 11.937 17.083 16 10 20.083v-8.165z"/>
</svg>
